X: 34747
T: Road To Lisdoonvarna, The
R: reel
M: 4/4
K: Dmixolydian
(3AcA AG FA d2|(3GAG GF EF G2|(3AcA AG FA dB|^cAGE FD D2|
(3AcA AG FA d2|(3GAG GF EF G2|(3AcA AG FA dB|^cAGE FD D2||
de (3fed cA A2|BG G2 cA A2|de (3fed cA A2|BcAG FD D2|
defd cA A2|BG G2 cA A2|defd cA A2|BcAG FD D2||

